Numix/48/emotes/face-crying.svg

<?xml version="1.0" encoding="UTF-8" standalone="no"?>
<!-- Created with Inkscape (http://www.inkscape.org/) -->

<svg
   xmlns:dc="http://purl.org/dc/elements/1.1/"
   xmlns:cc="http://creativecommons.org/ns#"
   xmlns:rdf="http://www.w3.org/1999/02/22-rdf-syntax-ns#"
   xmlns:svg="http://www.w3.org/2000/svg"
   xmlns="http://www.w3.org/2000/svg"
   xmlns:sodipodi="http://sodipodi.sourceforge.net/DTD/sodipodi-0.dtd"
   xmlns:inkscape="http://www.inkscape.org/namespaces/inkscape"
   version="1.1"
   width="48"
   height="48"
   id="svg4876"
   inkscape:version="0.91 r"
   sodipodi:docname="face-crying.svg"
   inkscape:export-filename="/home/andreas/Diverses/numix-icon-theme/Numix/48/emotes/face-angel.svg.png"
   inkscape:export-xdpi="480"
   inkscape:export-ydpi="480">
  <sodipodi:namedview
     pagecolor="#ffffff"
     bordercolor="#666666"
     borderopacity="1"
     objecttolerance="10"
     gridtolerance="10"
     guidetolerance="10"
     inkscape:pageopacity="0"
     inkscape:pageshadow="2"
     inkscape:window-width="1920"
     inkscape:window-height="1056"
     id="namedview27"
     showgrid="true"
     inkscape:zoom="14.75"
     inkscape:cx="8.4726225"
     inkscape:cy="18.369497"
     inkscape:window-x="0"
     inkscape:window-y="24"
     inkscape:window-maximized="1"
     inkscape:current-layer="svg4876"
     showguides="false">
    <inkscape:grid
       type="xygrid"
       id="grid4164" />
  </sodipodi:namedview>
  <defs
     id="defs4878" />
  <metadata
     id="metadata4881">
    <rdf:RDF>
      <cc:Work
         rdf:about="">
        <dc:format>image/svg+xml</dc:format>
        <dc:type
           rdf:resource="http://purl.org/dc/dcmitype/StillImage" />
        <dc:title />
      </cc:Work>
    </rdf:RDF>
  </metadata>
  <path
     style="color:#000000;display:inline;overflow:visible;visibility:visible;fill:#ffda5e;fill-opacity:1;fill-rule:nonzero;stroke:none;stroke-width:0.91071427;marker:none;enable-background:accumulate"
     id="path3009-1-5-0-2-1-3"
     inkscape:connector-curvature="0"
     d="m 42,24.001634 a 18,15.5 0 0 1 -35.9999998,0 18,15.5 0 1 1 35.9999998,0 z" />
  <path
     style="opacity:1;fill:#656565;fill-opacity:1;fill-rule:nonzero;stroke:none;stroke-width:1;stroke-linecap:square;stroke-linejoin:miter;stroke-miterlimit:4;stroke-dasharray:none;stroke-dashoffset:0;stroke-opacity:1"
     d="M 17.099609,33 C 17.6688,30.113675 20.584854,28.000712 24,28 c 3.41293,0.0032 6.325711,2.115546 6.894531,5 l -0.96289,0 A 6,3.5 0 0 0 24,30 6,3.5 0 0 0 18.068359,33 l -0.96875,0 z"
     id="path4150"
     inkscape:connector-curvature="0" />
  <path
     style="opacity:1;fill:#656565;fill-opacity:1;fill-rule:nonzero;stroke:none;stroke-width:2;stroke-linecap:square;stroke-linejoin:miter;stroke-miterlimit:4;stroke-dasharray:none;stroke-dashoffset:0;stroke-opacity:1"
     d="m 19.753906,18.720703 -4.171875,2.40625 A 2.5,2.5 0 0 0 18,23 2.5,2.5 0 0 0 20.5,20.5 2.5,2.5 0 0 0 19.753906,18.720703 Z"
     id="path4138"
     inkscape:connector-curvature="0" />
  <path
     style="opacity:1;fill:#656565;fill-opacity:1;fill-rule:nonzero;stroke:none;stroke-width:2;stroke-linecap:square;stroke-linejoin:miter;stroke-miterlimit:4;stroke-dasharray:none;stroke-dashoffset:0;stroke-opacity:1"
     d="M 28.246094,18.720703 A 2.5,2.5 0 0 0 27.5,20.5 2.5,2.5 0 0 0 30,23 2.5,2.5 0 0 0 32.416016,21.126953 l -4.169922,-2.40625 z"
     id="circle4140"
     inkscape:connector-curvature="0" />
  <path
     style="opacity:1;fill:#87b6f1;fill-opacity:1;stroke:none"
     d="M 33,27.500019 C 32.999989,28.328454 32.32842,29 31.5,29 30.67158,29 30.000011,28.328454 30,27.500019 c -1.1e-5,-0.828435 1.5,-3.500069 1.5,-3.500069 0,0 1.500011,2.671634 1.5,3.500069 z"
     id="path4167"
     inkscape:connector-curvature="0"
     sodipodi:nodetypes="ssscs" />
</svg>

<!-- Created with Inkscape (http://www.inkscape.org/) -->
<svg xmlns="http://www.w3.org/2000/svg" viewBox="0 0 48 48">
 <path d="m 42 24 a 18 15.5 0 0 1 -36 0 18 15.5 0 1 1 36 0 z" style="visibility:visible;fill:#ffda5e;fill-opacity:1;stroke:none;display:inline;color:#000;fill-rule:nonzero"/>
 <path d="m 17.1 33 c 0.569 -2.886 3.485 -4.999 6.9 -5 c 3.413 0.003 6.326 2.116 6.895 5 l -0.963 0 a 6 3.5 0 0 0 -5.932 -3 6 3.5 0 0 0 -5.932 3 l -0.969 0 z" style="fill:#656565;opacity:1;fill-opacity:1;stroke:none;fill-rule:nonzero"/>
 <path d="m 19.754 18.721 -4.172 2.406 a 2.5 2.5 0 0 0 2.418 1.873 2.5 2.5 0 0 0 2.5 -2.5 2.5 2.5 0 0 0 -0.746 -1.779" style="fill:#656565;opacity:1;fill-opacity:1;stroke:none;fill-rule:nonzero"/>
 <path d="M 28.25 18.721 A 2.5 2.5 0 0 0 27.5 20.5 2.5 2.5 0 0 0 30 23 2.5 2.5 0 0 0 32.416 21.13 l -4.17 -2.406 z" style="fill:#656565;opacity:1;fill-opacity:1;stroke:none;fill-rule:nonzero"/>
 <path d="m 33 27.5 c 0 0.828 -0.672 1.5 -1.5 1.5 -0.828 0 -1.5 -0.672 -1.5 -1.5 c 0 -0.828 1.5 -3.5 1.5 -3.5 0 0 1.5 2.672 1.5 3.5 z" style="fill:#87b6f1;opacity:1;fill-opacity:1;stroke:none"/>
</svg>
